Numix-Circle/48x48/apps/gnome-books.svg

<?xml version="1.0" encoding="UTF-8" standalone="no"?>
<svg
   xmlns:dc="http://purl.org/dc/elements/1.1/"
   xmlns:cc="http://creativecommons.org/ns#"
   xmlns:rdf="http://www.w3.org/1999/02/22-rdf-syntax-ns#"
   xmlns:svg="http://www.w3.org/2000/svg"
   xmlns="http://www.w3.org/2000/svg"
   xmlns:xlink="http://www.w3.org/1999/xlink"
   xmlns:sodipodi="http://sodipodi.sourceforge.net/DTD/sodipodi-0.dtd"
   xmlns:inkscape="http://www.inkscape.org/namespaces/inkscape"
   viewBox="0 0 48 48"
   id="svg2"
   version="1.1"
   inkscape:version="0.91 r13725"
   sodipodi:docname="gnome-books.svg">
  <metadata
     id="metadata61">
    <rdf:RDF>
      <cc:Work
         rdf:about="">
        <dc:format>image/svg+xml</dc:format>
        <dc:type
           rdf:resource="http://purl.org/dc/dcmitype/StillImage" />
        <dc:title />
      </cc:Work>
    </rdf:RDF>
  </metadata>
  <sodipodi:namedview
     pagecolor="#ffffff"
     bordercolor="#666666"
     borderopacity="1"
     objecttolerance="10"
     gridtolerance="10"
     guidetolerance="10"
     inkscape:pageopacity="0"
     inkscape:pageshadow="2"
     inkscape:window-width="1366"
     inkscape:window-height="713"
     id="namedview59"
     showgrid="false"
     inkscape:zoom="1"
     inkscape:cx="22.90625"
     inkscape:cy="21.928932"
     inkscape:window-x="0"
     inkscape:window-y="28"
     inkscape:window-maximized="1"
     inkscape:current-layer="svg2">
    <inkscape:grid
       type="xygrid"
       id="grid3379" />
  </sodipodi:namedview>
  <defs
     id="defs4">
    <linearGradient
       id="linearGradient3764"
       x1="1"
       x2="47"
       gradientUnits="userSpaceOnUse"
       gradientTransform="matrix(0,-1,1,0,-1.5e-6,47.999998)">
      <stop
         stop-color="#5dbacb"
         stop-opacity="1"
         id="stop7" />
      <stop
         offset="1"
         stop-color="#6cc0d0"
         stop-opacity="1"
         id="stop9" />
    </linearGradient>
    <linearGradient
       inkscape:collect="always"
       xlink:href="#linearGradient4309"
       id="linearGradient4251"
       x1="21"
       y1="23"
       x2="24"
       y2="23"
       gradientUnits="userSpaceOnUse" />
    <linearGradient
       inkscape:collect="always"
       id="linearGradient4309">
      <stop
         style="stop-color:#eff5eb;stop-opacity:1"
         offset="0"
         id="stop4311" />
      <stop
         style="stop-color:#d1e2c4;stop-opacity:1"
         offset="1"
         id="stop4313" />
    </linearGradient>
    <linearGradient
       inkscape:collect="always"
       xlink:href="#linearGradient4309"
       id="linearGradient4265"
       gradientUnits="userSpaceOnUse"
       x1="21"
       y1="23"
       x2="24"
       y2="23"
       gradientTransform="matrix(-1,0,0,1,48,0)" />
  </defs>
  <g
     id="g21">
    <path
       d="m 36.31 5 c 5.859 4.062 9.688 10.831 9.688 18.5 c 0 12.426 -10.07 22.5 -22.5 22.5 c -7.669 0 -14.438 -3.828 -18.5 -9.688 c 1.037 1.822 2.306 3.499 3.781 4.969 c 4.085 3.712 9.514 5.969 15.469 5.969 c 12.703 0 23 -10.298 23 -23 c 0 -5.954 -2.256 -11.384 -5.969 -15.469 c -1.469 -1.475 -3.147 -2.744 -4.969 -3.781 z m 4.969 3.781 c 3.854 4.113 6.219 9.637 6.219 15.719 c 0 12.703 -10.297 23 -23 23 c -6.081 0 -11.606 -2.364 -15.719 -6.219 c 4.16 4.144 9.883 6.719 16.219 6.719 c 12.703 0 23 -10.298 23 -23 c 0 -6.335 -2.575 -12.06 -6.719 -16.219 z"
       opacity="0.05"
       id="path23" />
    <path
       d="m 41.28 8.781 c 3.712 4.085 5.969 9.514 5.969 15.469 c 0 12.703 -10.297 23 -23 23 c -5.954 0 -11.384 -2.256 -15.469 -5.969 c 4.113 3.854 9.637 6.219 15.719 6.219 c 12.703 0 23 -10.298 23 -23 c 0 -6.081 -2.364 -11.606 -6.219 -15.719 z"
       opacity="0.1"
       id="path25" />
    <path
       d="m 31.25 2.375 c 8.615 3.154 14.75 11.417 14.75 21.13 c 0 12.426 -10.07 22.5 -22.5 22.5 c -9.708 0 -17.971 -6.135 -21.12 -14.75 a 23 23 0 0 0 44.875 -7 a 23 23 0 0 0 -16 -21.875 z"
       opacity="0.2"
       id="path27" />
  </g>
  <g
     id="g29">
    <path
       d="m 24 1 c 12.703 0 23 10.297 23 23 c 0 12.703 -10.297 23 -23 23 -12.703 0 -23 -10.297 -23 -23 0 -12.703 10.297 -23 23 -23 z"
       fill="url(#linearGradient3764)"
       fill-opacity="1"
       id="path31" />
  </g>
  <g
     id="g33" />
  <g
     id="g55">
    <path
       d="m 40.03 7.531 c 3.712 4.084 5.969 9.514 5.969 15.469 0 12.703 -10.297 23 -23 23 c -5.954 0 -11.384 -2.256 -15.469 -5.969 4.178 4.291 10.01 6.969 16.469 6.969 c 12.703 0 23 -10.298 23 -23 0 -6.462 -2.677 -12.291 -6.969 -16.469 z"
       opacity="0.1"
       id="path57" />
  </g>
  <g
     id="g4367">
    <path
       style="fill:#000000;fill-opacity:0.09803922;fill-rule:evenodd;stroke:none;stroke-width:1px;stroke-linecap:butt;stroke-linejoin:miter;stroke-opacity:1"
       d="m 12,15 0,20 11,0 c 1,0.6 3,0.6 4,0 l 11,0 0,-20 -11,0 c -1,0.6 -3,0.6 -4,0 l -11,0 z"
       id="path4397"
       inkscape:connector-curvature="0" />
    <path
       sodipodi:nodetypes="ccccc"
       inkscape:connector-curvature="0"
       id="rect3374"
       d="m 22,14 c 1,0.6 3,0.6 4,0 1.044998,6.439493 2.635715,12.760352 0,20 -1,0.6 -3,0.6 -4,0 -1.494878,-6.9781 -0.353035,-13.406882 0,-20 z"
       style="fill:#a91717;fill-opacity:1;fill-rule:evenodd;stroke:none;stroke-width:1px;stroke-linecap:butt;stroke-linejoin:miter;stroke-opacity:1" />
    <rect
       y="14"
       x="11"
       height="20"
       width="11"
       id="rect4176"
       style="fill:#c52b2b;fill-opacity:1;stroke:none" />
    <rect
       style="fill:#c52b2b;fill-opacity:1;stroke:none"
       id="rect4178"
       width="11"
       height="20"
       x="26"
       y="14" />
    <g
       id="g4341">
      <g
         id="g4333">
        <path
           sodipodi:nodetypes="ccccc"
           inkscape:connector-curvature="0"
           id="rect4180"
           d="m 12,15 12,0 0,18.5 C 24,33 16,33 12,33 Z"
           style="fill:#b2b1a2;fill-opacity:1;stroke:none" />
        <path
           style="fill:#b2b1a2;fill-opacity:1;stroke:none"
           d="m 36,15 -12,0 0,18.5 C 24,33 32,33 36,33 Z"
           id="path4243"
           inkscape:connector-curvature="0"
           sodipodi:nodetypes="ccccc" />
        <path
           sodipodi:nodetypes="ccccc"
           inkscape:connector-curvature="0"
           id="rect4182"
           d="m 24,15 c 0.991304,-1 10.646548,-0.5 11.5,-0.5 l 0,18 C 34.508696,32.5 25,32 24,33.25 Z"
           style="fill:#c8cdc3;fill-opacity:1;stroke:none" />
        <path
           style="fill:#c8cdc3;fill-opacity:1;stroke:none"
           d="M 24,15 C 23.008696,14 13.353452,14.5 12.5,14.5 l 0,18 C 13.491304,32.5 23,32 24,33.25 Z"
           id="path4187"
           inkscape:connector-curvature="0"
           sodipodi:nodetypes="ccccc" />
        <path
           style="fill:url(#linearGradient4251);fill-opacity:1;stroke:none"
           d="M 24,15 C 23,13 15.000001,14.010017 13,14 l 0,18 c 2.000001,0 10,-1 11,1 z"
           id="path4194"
           inkscape:connector-curvature="0"
           sodipodi:nodetypes="ccccc" />
        <path
           sodipodi:nodetypes="ccccc"
           inkscape:connector-curvature="0"
           id="path4263"
           d="m 24,15 c 1,-2 8.999999,-0.989983 11,-1 l 0,18 c -2.000001,0 -10,-1 -11,1 z"
           style="fill:url(#linearGradient4265);fill-opacity:1;stroke:none" />
      </g>
      <g
         id="g4315"
         style="fill:#1e1e1e;fill-opacity:0.17647059">
        <g
           id="g4284"
           style="fill:#1e1e1e;fill-opacity:0.17647059">
          <path
             style="fill:#1e1e1e;fill-opacity:0.17647059;stroke:none"
             d="m 18.875,28.801953 c -1.884658,9.94e-4 -3.644923,0.132769 -4.875,0.195313 l 0,1 C 16.276421,29.876971 20.847369,29.469734 23,30.3 l 0,-1 c -0.989467,-0.380669 -2.522025,-0.498892 -4.125,-0.498047 z"
             id="path4267"
             inkscape:connector-curvature="0" />
          <path
             inkscape:connector-curvature="0"
             id="path4272"
             d="m 18.875,26.801953 c -1.884658,9.94e-4 -3.644923,0.132769 -4.875,0.195313 l 0,1 C 16.276421,27.876971 20.847369,27.469734 23,28.3 l 0,-1 c -0.989467,-0.380669 -2.522025,-0.498892 -4.125,-0.498047 z"
             style="fill:#1e1e1e;fill-opacity:0.17647059;stroke:none" />
          <path
             style="fill:#1e1e1e;fill-opacity:0.17647059;stroke:none"
             d="m 18.875,24.801953 c -1.884658,9.94e-4 -3.644923,0.132769 -4.875,0.195313 l 0,1 C 16.276421,25.876971 20.847369,25.469734 23,26.3 l 0,-1 c -0.989467,-0.380669 -2.522025,-0.498892 -4.125,-0.498047 z"
             id="path4274"
             inkscape:connector-curvature="0" />
          <path
             style="fill:#1e1e1e;fill-opacity:0.17647059;stroke:none"
             d="M 18.875 16.802734 C 16.990342 16.803728 15.230077 16.935503 14 16.998047 L 14 23.998047 C 16.276421 23.877752 20.847369 23.470515 23 24.300781 L 23 17.300781 C 22.010533 16.920112 20.477975 16.801889 18.875 16.802734 z M 20.480469 17.599609 C 21.635727 17.880859 20.403208 19.203125 19.683594 19.203125 C 18.96298 19.203125 19.20046 17.599609 20.480469 17.599609 z M 18.445312 17.796875 C 19.166929 17.715196 18.73524 19.026999 18.351562 19.005859 C 17.967882 18.985609 17.725697 17.879455 18.445312 17.796875 z M 17.242188 18.232422 C 17.715848 18.188546 17.671881 19.218978 17.367188 19.273438 C 17.043253 19.331491 16.551967 18.471878 17.130859 18.261719 C 17.166847 18.249339 17.209937 18.236122 17.242188 18.232422 z M 16.333984 18.908203 C 16.686674 18.917877 16.837814 19.716334 16.599609 19.808594 C 16.327411 19.913225 15.712868 19.246108 16.175781 18.964844 C 16.234271 18.929744 16.283244 18.906503 16.333984 18.908203 z M 18.980469 19.425781 C 19.576856 19.434782 20.05851 19.610649 20.125 19.947266 C 20.330962 21.030911 17.183865 21.420183 18.369141 22.212891 C 18.742071 22.461751 19.130959 22.274562 19.074219 21.888672 C 19.025478 21.566914 20.351574 21.373353 20.246094 21.859375 C 20.10887 22.498176 19.379771 23 18.744141 23 C 17.452384 23 16.218735 21.687454 16.460938 20.736328 C 16.682397 19.857219 17.983501 19.412874 18.976562 19.427734 L 18.980469 19.425781 z "
             id="path4282" />
        </g>
        <g
           transform="matrix(-1,0,0,1,48,0)"
           id="g4293"
           style="fill:#1e1e1e;fill-opacity:0.17647059">
          <path
             inkscape:connector-curvature="0"
             id="path4295"
             d="m 18.875,28.801953 c -1.884658,9.94e-4 -3.644923,0.132769 -4.875,0.195313 l 0,1 C 16.276421,29.876971 20.847369,29.469734 23,30.3 l 0,-1 c -0.989467,-0.380669 -2.522025,-0.498892 -4.125,-0.498047 z"
             style="fill:#1e1e1e;fill-opacity:0.17647059;stroke:none" />
          <path
             style="fill:#1e1e1e;fill-opacity:0.17647059;stroke:none"
             d="m 18.875,26.801953 c -1.884658,9.94e-4 -3.644923,0.132769 -4.875,0.195313 l 0,1 C 16.276421,27.876971 20.847369,27.469734 23,28.3 l 0,-1 c -0.989467,-0.380669 -2.522025,-0.498892 -4.125,-0.498047 z"
             id="path4297"
             inkscape:connector-curvature="0" />
          <path
             inkscape:connector-curvature="0"
             id="path4299"
             d="m 18.875,24.801953 c -1.884658,9.94e-4 -3.644923,0.132769 -4.875,0.195313 l 0,1 C 16.276421,25.876971 20.847369,25.469734 23,26.3 l 0,-1 c -0.989467,-0.380669 -2.522025,-0.498892 -4.125,-0.498047 z"
             style="fill:#1e1e1e;fill-opacity:0.17647059;stroke:none" />
          <path
             style="fill:#1e1e1e;fill-opacity:0.17647059;stroke:none"
             d="m 18.875,22.801953 c -1.884658,9.94e-4 -3.644923,0.132769 -4.875,0.195313 l 0,1 C 16.276421,23.876971 20.847369,23.469734 23,24.3 l 0,-1 c -0.989467,-0.380669 -2.522025,-0.498892 -4.125,-0.498047 z"
             id="path4301"
             inkscape:connector-curvature="0" />
          <path
             inkscape:connector-curvature="0"
             id="path4303"
             d="m 18.875,20.801953 c -1.884658,9.94e-4 -3.644923,0.132769 -4.875,0.195313 l 0,1 C 16.276421,21.876971 20.847369,21.469734 23,22.3 l 0,-1 c -0.989467,-0.380669 -2.522025,-0.498892 -4.125,-0.498047 z"
             style="fill:#1e1e1e;fill-opacity:0.17647059;stroke:none" />
          <path
             style="fill:#1e1e1e;fill-opacity:0.17647059;stroke:none"
             d="m 18.875,18.801953 c -1.884658,9.94e-4 -3.644923,0.132769 -4.875,0.195313 l 0,1 C 16.276421,19.876971 20.847369,19.469734 23,20.3 l 0,-1 c -0.989467,-0.380669 -2.522025,-0.498892 -4.125,-0.498047 z"
             id="path4305"
             inkscape:connector-curvature="0" />
          <path
             inkscape:connector-curvature="0"
             id="path4307"
             d="m 18.875,16.801953 c -1.884658,9.94e-4 -3.644923,0.132769 -4.875,0.195313 l 0,1 C 16.276421,17.876971 20.847369,17.469734 23,18.3 l 0,-1 c -0.989467,-0.380669 -2.522025,-0.498892 -4.125,-0.498047 z"
             style="fill:#1e1e1e;fill-opacity:0.17647059;stroke:none" />
        </g>
      </g>
    </g>
  </g>
</svg>

<svg xmlns="http://www.w3.org/2000/svg" xmlns:xlink="http://www.w3.org/1999/xlink" viewBox="0 0 48 48">
 <defs>
  <linearGradient id="linearGradient3764" x1="1" x2="47" gradientUnits="userSpaceOnUse" gradientTransform="matrix(0,-1,1,0,-1.5e-6,47.999998)">
   <stop style="stop-color:#5dbacb;stop-opacity:1"/>
   <stop offset="1" style="stop-color:#6cc0d0;stop-opacity:1"/>
  </linearGradient>
  <linearGradient xlink:href="#linearGradient4309" id="linearGradient4251" x1="21" x2="24" gradientUnits="userSpaceOnUse"/>
  <linearGradient id="linearGradient4309">
   <stop style="stop-color:#eff5eb;stop-opacity:1"/>
   <stop offset="1" style="stop-color:#d1e2c4;stop-opacity:1"/>
  </linearGradient>
  <linearGradient xlink:href="#linearGradient4309" id="linearGradient4265" gradientUnits="userSpaceOnUse" x1="21" x2="24" gradientTransform="matrix(-1,0,0,1,48,0)"/>
 </defs>
 <g>
  <path d="m 36.31 5 c 5.859 4.062 9.688 10.831 9.688 18.5 c 0 12.426 -10.07 22.5 -22.5 22.5 c -7.669 0 -14.438 -3.828 -18.5 -9.688 c 1.037 1.822 2.306 3.499 3.781 4.969 c 4.085 3.712 9.514 5.969 15.469 5.969 c 12.703 0 23 -10.298 23 -23 c 0 -5.954 -2.256 -11.384 -5.969 -15.469 c -1.469 -1.475 -3.147 -2.744 -4.969 -3.781 z m 4.969 3.781 c 3.854 4.113 6.219 9.637 6.219 15.719 c 0 12.703 -10.297 23 -23 23 c -6.081 0 -11.606 -2.364 -15.719 -6.219 c 4.16 4.144 9.883 6.719 16.219 6.719 c 12.703 0 23 -10.298 23 -23 c 0 -6.335 -2.575 -12.06 -6.719 -16.219 z" style="opacity:0.05"/>
  <path d="m 41.28 8.781 c 3.712 4.085 5.969 9.514 5.969 15.469 c 0 12.703 -10.297 23 -23 23 c -5.954 0 -11.384 -2.256 -15.469 -5.969 c 4.113 3.854 9.637 6.219 15.719 6.219 c 12.703 0 23 -10.298 23 -23 c 0 -6.081 -2.364 -11.606 -6.219 -15.719 z" style="opacity:0.1"/>
  <path d="m 31.25 2.375 c 8.615 3.154 14.75 11.417 14.75 21.13 c 0 12.426 -10.07 22.5 -22.5 22.5 c -9.708 0 -17.971 -6.135 -21.12 -14.75 a 23 23 0 0 0 44.875 -7 a 23 23 0 0 0 -16 -21.875 z" style="opacity:0.2"/>
 </g>
 <g>
  <path d="m 24 1 c 12.703 0 23 10.297 23 23 c 0 12.703 -10.297 23 -23 23 -12.703 0 -23 -10.297 -23 -23 0 -12.703 10.297 -23 23 -23 z" style="fill:url(#linearGradient3764);fill-opacity:1"/>
 </g>
 <g>
  <path d="m 40.03 7.531 c 3.712 4.084 5.969 9.514 5.969 15.469 0 12.703 -10.297 23 -23 23 c -5.954 0 -11.384 -2.256 -15.469 -5.969 4.178 4.291 10.01 6.969 16.469 6.969 c 12.703 0 23 -10.298 23 -23 0 -6.462 -2.677 -12.291 -6.969 -16.469 z" style="opacity:0.1"/>
 </g>
 <g>
  <path d="m 12 15 0 20 11 0 c 1 0.6 3 0.6 4 0 l 11 0 0 -20 -11 0 c -1 0.6 -3 0.6 -4 0 l -11 0 z" style="fill:#000;fill-opacity:0.098;stroke:none;fill-rule:evenodd"/>
  <path d="m 22 14 c 1 0.6 3 0.6 4 0 1.045 6.439 2.636 12.76 0 20 -1 0.6 -3 0.6 -4 0 -1.495 -6.978 -0.353 -13.407 0 -20 z" style="fill:#a91717;fill-opacity:1;stroke:none;fill-rule:evenodd"/>
  <rect y="14" x="11" height="20" width="11" style="fill:#c52b2b;fill-opacity:1;stroke:none"/>
  <rect width="11" height="20" x="26" y="14" style="fill:#c52b2b;fill-opacity:1;stroke:none"/>
  <g>
   <g>
    <path d="m 12,15 12,0 0,18.5 C 24,33 16,33 12,33 Z" style="fill:#b2b1a2;fill-opacity:1;stroke:none"/>
    <path d="m 36,15 -12,0 0,18.5 C 24,33 32,33 36,33 Z" style="fill:#b2b1a2;fill-opacity:1;stroke:none"/>
    <path d="m 24 15 c 0.991 -1 10.647 -0.5 11.5 -0.5 l 0 18 c -0.991 0 -10.5 -0.5 -11.5 0.75" style="fill:#c8cdc3;fill-opacity:1;stroke:none"/>
    <path d="m 24 15 c -0.991 -1 -10.647 -0.5 -11.5 -0.5 l 0 18 c 0.991 0 10.5 -0.5 11.5 0.75" style="fill:#c8cdc3;fill-opacity:1;stroke:none"/>
    <path d="m 24 15 c -1 -2 -9 -0.99 -11 -1 l 0 18 c 2 0 10 -1 11 1 z" style="fill:url(#linearGradient4251);fill-opacity:1;stroke:none"/>
    <path d="m 24 15 c 1 -2 9 -0.99 11 -1 l 0 18 c -2 0 -10 -1 -11 1 z" style="fill:url(#linearGradient4265);fill-opacity:1;stroke:none"/>
   </g>
   <g style="fill:#1e1e1e;fill-opacity:0.176">
    <g>
     <path d="m 18.875 28.802 c -1.885 0 -3.645 0.133 -4.875 0.195 l 0 1 c 2.276 -0.12 6.847 -0.528 9 0.303 l 0 -1 c -0.989 -0.381 -2.522 -0.499 -4.125 -0.498 z" style="stroke:none"/>
     <path d="m 18.875 26.802 c -1.885 0 -3.645 0.133 -4.875 0.195 l 0 1 c 2.276 -0.12 6.847 -0.528 9 0.303 l 0 -1 c -0.989 -0.381 -2.522 -0.499 -4.125 -0.498 z" style="stroke:none"/>
     <path d="m 18.875 24.802 c -1.885 0 -3.645 0.133 -4.875 0.195 l 0 1 c 2.276 -0.12 6.847 -0.528 9 0.303 l 0 -1 c -0.989 -0.381 -2.522 -0.499 -4.125 -0.498 z" style="stroke:none"/>
     <path d="m 18.875 16.803 c -1.885 0 -3.645 0.133 -4.875 0.195 l 0 7 c 2.276 -0.12 6.847 -0.528 9 0.303 l 0 -7 c -0.989 -0.381 -2.522 -0.499 -4.125 -0.498 z m 1.605 0.797 c 1.155 0.281 -0.077 1.604 -0.797 1.604 c -0.721 0 -0.483 -1.604 0.797 -1.604 z m -2.035 0.197 c 0.722 -0.082 0.29 1.23 -0.094 1.209 c -0.384 -0.02 -0.626 -1.126 0.094 -1.209 z m -1.203 0.436 c 0.474 -0.044 0.43 0.987 0.125 1.041 c -0.324 0.058 -0.815 -0.802 -0.236 -1.012 c 0.036 -0.012 0.079 -0.026 0.111 -0.029 z m -0.908 0.676 c 0.353 0.0001 0.504 0.808 0.266 0.9 c -0.272 0.105 -0.887 -0.562 -0.424 -0.844 c 0.058 -0.035 0.107 -0.058 0.158 -0.057 z m 2.646 0.518 c 0.596 0.009 1.078 0.185 1.145 0.521 c 0.206 1.084 -2.941 1.473 -1.756 2.266 c 0.373 0.249 0.762 0.062 0.705 -0.324 c -0.049 -0.322 1.277 -0.515 1.172 -0.029 c -0.137 0.639 -0.866 1.141 -1.502 1.141 c -1.292 0 -2.525 -1.313 -2.283 -2.264 c 0.221 -0.879 1.523 -1.323 2.516 -1.309 l 0.004 -0.002 z" style="stroke:none"/>
    </g>
    <g transform="matrix(-1,0,0,1,48,0)">
     <path d="m 18.875 28.802 c -1.885 0 -3.645 0.133 -4.875 0.195 l 0 1 c 2.276 -0.12 6.847 -0.528 9 0.303 l 0 -1 c -0.989 -0.381 -2.522 -0.499 -4.125 -0.498 z" style="stroke:none"/>
     <path d="m 18.875 26.802 c -1.885 0 -3.645 0.133 -4.875 0.195 l 0 1 c 2.276 -0.12 6.847 -0.528 9 0.303 l 0 -1 c -0.989 -0.381 -2.522 -0.499 -4.125 -0.498 z" style="stroke:none"/>
     <path d="m 18.875 24.802 c -1.885 0 -3.645 0.133 -4.875 0.195 l 0 1 c 2.276 -0.12 6.847 -0.528 9 0.303 l 0 -1 c -0.989 -0.381 -2.522 -0.499 -4.125 -0.498 z" style="stroke:none"/>
     <path d="m 18.875 22.802 c -1.885 0 -3.645 0.133 -4.875 0.195 l 0 1 c 2.276 -0.12 6.847 -0.528 9 0.303 l 0 -1 c -0.989 -0.381 -2.522 -0.499 -4.125 -0.498 z" style="stroke:none"/>
     <path d="m 18.875 20.802 c -1.885 0 -3.645 0.133 -4.875 0.195 l 0 1 c 2.276 -0.12 6.847 -0.528 9 0.303 l 0 -1 c -0.989 -0.381 -2.522 -0.499 -4.125 -0.498 z" style="stroke:none"/>
     <path d="m 18.875 18.802 c -1.885 0 -3.645 0.133 -4.875 0.195 l 0 1 c 2.276 -0.12 6.847 -0.528 9 0.303 l 0 -1 c -0.989 -0.381 -2.522 -0.499 -4.125 -0.498 z" style="stroke:none"/>
     <path d="m 18.875 16.802 c -1.885 0 -3.645 0.133 -4.875 0.195 l 0 1 c 2.276 -0.12 6.847 -0.528 9 0.303 l 0 -1 c -0.989 -0.381 -2.522 -0.499 -4.125 -0.498 z" style="stroke:none"/>
    </g>
   </g>
  </g>
 </g>
</svg>
